packages/ui-icons/src/Basic/16/Mobile-cash-desk_16.svg

<svg xmlns="http://www.w3.org/2000/svg" viewBox="0 0 20 20"><path d="M18.5 5v-.84A2.17 2.17 0 0 0 16.36 2H7.29A2.35 2.35 0 0 0 5 4.35V10H3v8h14v-8h-2V5Zm-2.16-2a1.16 1.16 0 0 1 1.15 1H15a1.34 1.34 0 0 1 1.34-1ZM6 4.35A1.35 1.35 0 0 1 7.35 3h7.08A2.33 2.33 0 0 0 14 4.34V13H6ZM16 11v6H4v-6h1v3h10v-3Zm-5-7H9v3H8v1h1v1H8v1h1v1h1v-1h2V9h-2V8h1a2 2 0 0 0 0-4Zm0 3h-1V5h1a1 1 0 0 1 0 2Z"/></svg>

<svg id="ready" xmlns="http://www.w3.org/2000/svg" viewBox="0 0 20 20"><title>Megaicons_work_16_1.8_cp</title><path d="M18.5,5V4.16A2.17,2.17,0,0,0,16.36,2H7.29A2.35,2.35,0,0,0,5,4.35V10H3v8H17V10H15V5ZM16.34,3a1.16,1.16,0,0,1,1.15,1H15A1.34,1.34,0,0,1,16.34,3ZM6,4.35A1.35,1.35,0,0,1,7.35,3h7.08A2.33,2.33,0,0,0,14,4.34V13H6ZM16,11v6H4V11H5v3H15V11ZM11,4H9V7H8V8H9V9H8v1H9v1h1V10h2V9H10V8h1a2,2,0,0,0,0-4Zm0,3H10V5h1a1,1,0,0,1,0,2Z"/></svg>
